X:1948
T:Bourrée à Ythier
S:Bardane
M:3/8
L:1/16
K:C
A3BcA|e4d2|cBcdcB|cdedcB|\
A3Bcd|e2d4|e6-|e6::A2BcdB|
c2AB-Bc|BcBAGA|BcBABc|\
A2BcdB|c2AB-Bc|1B2cB-Bc|BcBcBc:|2 B6-|B6||


